X:1
T:Onward, Christian Soldiers
M:4/4
L:1/4
K:C
 F F F F| F-E/2-D/2 E2| G G GF/2-G/2| A4| F A c f| f2 e2| d d A B|\
 c4| G G c G| A3/2- _B/2 A2| c c f c| d4| d c _B c| d- c _B- c| d c _B A|\
 G4| F F F F| F-E/2-D/2 E2| G G GF/2-G/2| A4| F A c f| f2 c2| _B A G3/2 F/2|\
 F4|
